x-pack/solutions/observability/plugins/apm/public/components/shared/span_icon/icons/service_bus.svg

<svg width="18" height="18" viewBox="0 0 18 18" fill="none" xmlns="http://www.w3.org/2000/svg">
<path d="M13.3901 7.40003H13.3801V7.38003H13.3601L9.00011 4.41003L4.63011 7.38003H4.61011V7.40003V13.2H13.3801V7.40003H13.3901Z" fill="#50E6FF"/>
<path d="M4.61011 7.40002V13.2L9.00011 10.3L4.61011 7.40002Z" fill="#32BEDD"/>
<path d="M13.38 7.40002L9 10.3L13.38 13.2V7.40002Z" fill="#198AB3"/>
<path d="M8.99011 10.3L4.61011 13.19V13.2H13.3801V13.19L8.99011 10.3Z" fill="url(#paint0_linear_1421_84664)"/>
<path d="M1.07 1.43005H2.36V5.00005C2.36 5.07697 2.32945 5.15073 2.27506 5.20511C2.22068 5.2595 2.14691 5.29005 2.07 5.29005H0.79C0.713087 5.29005 0.639325 5.2595 0.584939 5.20511C0.530554 5.15073 0.5 5.07697 0.5 5.00005V2.00005C0.5 1.84888 0.560053 1.7039 0.666949 1.597C0.773845 1.49011 0.918827 1.43005 1.07 1.43005Z" fill="#999999"/>
<path opacity="0.5" d="M1.07 1.43005H2.36V5.00005C2.36 5.07697 2.32945 5.15073 2.27506 5.20511C2.22068 5.2595 2.14691 5.29005 2.07 5.29005H0.79C0.713087 5.29005 0.639325 5.2595 0.584939 5.20511C0.530554 5.15073 0.5 5.07697 0.5 5.00005V2.00005C0.5 1.84888 0.560053 1.7039 0.666949 1.597C0.773845 1.49011 0.918827 1.43005 1.07 1.43005Z" fill="#999999"/>
<path d="M15.6399 1.43005H16.9299C17.0811 1.43005 17.226 1.49011 17.3329 1.597C17.4398 1.7039 17.4999 1.84888 17.4999 2.00005V5.00005C17.4999 5.07697 17.4693 5.15073 17.415 5.20511C17.3606 5.2595 17.2868 5.29005 17.2099 5.29005H15.9199C15.8447 5.28746 15.7735 5.25577 15.7213 5.20166C15.669 5.14755 15.6398 5.07526 15.6399 5.00005V1.43005Z" fill="#999999"/>
<path opacity="0.5" d="M15.6399 1.43005H16.9299C17.0811 1.43005 17.226 1.49011 17.3329 1.597C17.4398 1.7039 17.4999 1.84888 17.4999 2.00005V5.00005C17.4999 5.07697 17.4693 5.15073 17.415 5.20511C17.3606 5.2595 17.2868 5.29005 17.2099 5.29005H15.9199C15.8447 5.28746 15.7735 5.25577 15.7213 5.20166C15.669 5.14755 15.6398 5.07526 15.6399 5.00005V1.43005Z" fill="#999999"/>
<path d="M17.5 2.00005V3.25005L0.5 3.25005V2.00005C0.5 1.84888 0.560053 1.7039 0.666948 1.597C0.773844 1.49011 0.918827 1.43005 1.07 1.43005L16.94 1.43005C17.0894 1.43268 17.2319 1.49388 17.3366 1.6005C17.4413 1.70711 17.5 1.8506 17.5 2.00005Z" fill="#949494"/>
<path d="M0.790092 12.6801H2.08009C2.157 12.6801 2.23077 12.7106 2.28515 12.765C2.33954 12.8194 2.37009 12.8931 2.37009 12.9701V16.5701H1.07009C0.995238 16.5701 0.921118 16.5553 0.851962 16.5267C0.782806 16.498 0.71997 16.456 0.667041 16.4031C0.560145 16.2962 0.500092 16.1512 0.500092 16.0001V13.0001C0.495876 12.9595 0.500248 12.9186 0.512922 12.8798C0.525596 12.8411 0.546288 12.8055 0.573649 12.7753C0.60101 12.7451 0.634426 12.721 0.67172 12.7046C0.709013 12.6882 0.749347 12.6798 0.790092 12.6801Z" fill="#999999"/>
<path opacity="0.5" d="M0.790092 12.6801H2.08009C2.157 12.6801 2.23077 12.7106 2.28515 12.765C2.33954 12.8194 2.37009 12.8931 2.37009 12.9701V16.5701H1.07009C0.995238 16.5701 0.921118 16.5553 0.851962 16.5267C0.782806 16.498 0.71997 16.456 0.667041 16.4031C0.560145 16.2962 0.500092 16.1512 0.500092 16.0001V13.0001C0.495876 12.9595 0.500248 12.9186 0.512922 12.8798C0.525596 12.8411 0.546288 12.8055 0.573649 12.7753C0.60101 12.7451 0.634426 12.721 0.67172 12.7046C0.709013 12.6882 0.749347 12.6798 0.790092 12.6801Z" fill="#999999"/>
<path d="M15.92 12.6801H17.21C17.2869 12.6801 17.3607 12.7106 17.4151 12.765C17.4694 12.8194 17.5 12.8931 17.5 12.9701V15.9701C17.5 16.1212 17.4399 16.2662 17.333 16.3731C17.2262 16.48 17.0812 16.5401 16.93 16.5401H15.64V13.0001C15.6359 12.9604 15.6399 12.9202 15.652 12.8822C15.6641 12.8441 15.6839 12.809 15.7102 12.779C15.7365 12.7489 15.7687 12.7246 15.8048 12.7076C15.8409 12.6906 15.8801 12.6812 15.92 12.6801Z" fill="#999999"/>
<path opacity="0.5" d="M15.92 12.6801H17.21C17.2869 12.6801 17.3607 12.7106 17.4151 12.765C17.4694 12.8194 17.5 12.8931 17.5 12.9701V15.9701C17.5 16.1212 17.4399 16.2662 17.333 16.3731C17.2262 16.48 17.0812 16.5401 16.93 16.5401H15.64V13.0001C15.6359 12.9604 15.6399 12.9202 15.652 12.8822C15.6641 12.8441 15.6839 12.809 15.7102 12.779C15.7365 12.7489 15.7687 12.7246 15.8048 12.7076C15.8409 12.6906 15.8801 12.6812 15.92 12.6801Z" fill="#999999"/>
<path d="M0.5 15.9999L0.5 14.7499L17.5 14.7499V15.9999C17.5 16.1511 17.4399 16.2961 17.3331 16.403C17.2262 16.5099 17.0812 16.5699 16.93 16.5699H1.07C0.918827 16.5699 0.773845 16.5099 0.666949 16.403C0.560054 16.2961 0.5 16.1511 0.5 15.9999Z" fill="#949494"/>
<defs>
<linearGradient id="paint0_linear_1421_84664" x1="9.00011" y1="10.3" x2="9.00011" y2="13.2" gradientUnits="userSpaceOnUse">
<stop stop-color="#005BA1"/>
<stop offset="0.26" stop-color="#00589D"/>
<stop offset="0.53" stop-color="#004F90"/>
<stop offset="0.8" stop-color="#003F7C"/>
<stop offset="1" stop-color="#003067"/>
</linearGradient>
</defs>
</svg>

<svg xmlns="http://www.w3.org/2000/svg" width="18" height="18" fill="none"><path fill="#50E6FF" d="M13.39 7.4h-.01v-.02h-.02L9 4.41 4.63 7.38h-.02v5.82h8.77V7.4z"/><path fill="#32BEDD" d="M4.61 7.4v5.8L9 10.3z"/><path fill="#198AB3" d="M13.38 7.4 9 10.3l4.38 2.9z"/><path fill="url(#a)" d="m8.99 10.3-4.38 2.89v.01h8.77v-.01z"/><path fill="#999" d="M1.07 1.43h1.29V5a.29.29 0 0 1-.29.29H.79A.29.29 0 0 1 .5 5V2a.57.57 0 0 1 .57-.57"/><path fill="#999" d="M1.07 1.43h1.29V5a.29.29 0 0 1-.29.29H.79A.29.29 0 0 1 .5 5V2a.57.57 0 0 1 .57-.57" opacity=".5"/><path fill="#999" d="M15.64 1.43h1.29a.57.57 0 0 1 .57.57v3a.29.29 0 0 1-.29.29h-1.29a.29.29 0 0 1-.28-.29z"/><path fill="#999" d="M15.64 1.43h1.29a.57.57 0 0 1 .57.57v3a.29.29 0 0 1-.29.29h-1.29a.29.29 0 0 1-.28-.29z" opacity=".5"/><path fill="#949494" d="M17.5 2v1.25H.5V2a.57.57 0 0 1 .57-.57h15.87a.57.57 0 0 1 .56.57"/><path fill="#999" d="M.79 12.68h1.29a.29.29 0 0 1 .29.29v3.6h-1.3A.57.57 0 0 1 .5 16v-3a.29.29 0 0 1 .29-.32"/><path fill="#999" d="M.79 12.68h1.29a.29.29 0 0 1 .29.29v3.6h-1.3A.57.57 0 0 1 .5 16v-3a.29.29 0 0 1 .29-.32" opacity=".5"/><path fill="#999" d="M15.92 12.68h1.29a.29.29 0 0 1 .29.29v3a.57.57 0 0 1-.57.57h-1.29V13a.29.29 0 0 1 .28-.32"/><path fill="#999" d="M15.92 12.68h1.29a.29.29 0 0 1 .29.29v3a.57.57 0 0 1-.57.57h-1.29V13a.29.29 0 0 1 .28-.32" opacity=".5"/><path fill="#949494" d="M.5 16v-1.25h17V16a.57.57 0 0 1-.57.57H1.07A.57.57 0 0 1 .5 16"/><defs><linearGradient id="a" x1="9" x2="9" y1="10.3" y2="13.2" gradientUnits="userSpaceOnUse"><stop stop-color="#005BA1"/><stop offset=".26" stop-color="#00589D"/><stop offset=".53" stop-color="#004F90"/><stop offset=".8" stop-color="#003F7C"/><stop offset="1" stop-color="#003067"/></linearGradient></defs></svg>
